assets/icons/qvision/4k.svg

<svg xmlns="http://www.w3.org/2000/svg" height="24" viewBox="0 0 24 24" width="24"><path d="M0 0h24v24H0V0z" fill="none"/><path d="M19 3H5c-1.1 0-2 .9-2 2v14c0 1.1.9 2 2 2h14c1.1 0 2-.9 2-2V5c0-1.1-.9-2-2-2zm-7 10.5h-1V15H9.5v-1.5h-3V9H8v3h1.5V9H11v3h1v1.5zm6 1.5h-1.75l-1.75-2.25V15H13V9h1.5v2.25L16.25 9H18l-2.25 3L18 15z"/></svg>

<svg width="24" height="24" viewBox="0 0 24 24" fill="none" xmlns="http://www.w3.org/2000/svg">
<g clip-path="url(#clip0_147_1328)">
<path d="M19 3H5C3.9 3 3 3.9 3 5V19C3 20.1 3.9 21 5 21H19C20.1 21 21 20.1 21 19V5C21 3.9 20.1 3 19 3ZM12 13.5H11V15H9.5V13.5H6.5V9H8V12H9.5V9H11V12H12V13.5ZM18 15H16.25L14.5 12.75V15H13V9H14.5V11.25L16.25 9H18L15.75 12L18 15Z" fill="#323232"/>
</g>
<defs>
<clipPath id="clip0_147_1328">
<rect width="24" height="24" fill="white"/>
</clipPath>
</defs>
</svg>
